X:1
T:Title
%%score ( 1 2 ) { 3 | 4 }
L:1/8
Q:1/4=100
M:4/4
K:G
V:1 treble nm="Grand Piano, Soprano"
V:2 treble 
V:3 bass nm="Choir Pad, Riverside, CMD"
V:4 bass 
V:1
 [B,D]2 [DB]2- [DB][Dc][Ge][Gd] | [EG]>[^DA] [=DB]6 | [DB]2 [Fd]2- [Fd][FA] [=F^G]2 | [FA]2 [GB]6 | %4
w: By~Ernest~Orlando~Sellers.~1909 * * * * *||||
 [B,D]2 [DB]2- [DB][DB][^DB][DF] | [^DB][DA] [EG]6 | [EG]2 [DG]2- [DG][GB] [FB]2 | [DA]2 [DG]6 | %8
w: ||||
 [B,D]2 [CA]2- [CA][B,^G][CA][Ec] | [DB]>[CA] [B,G]6 | G2 G2- G/ z/ F E2 | F2 F4- [=DF]2 | %12
w: ||||
 [DG]2 [DB]2- [DB][Dc][Ge][Gd] | [EG]>[^DA] [=DB]6 | [DB]2 [EA]2- [EA][EB] [Ec]2 | [DF]2 [DG]6- | %16
w: ||||
 [DG]2 z2 z4 |] %17
w: |
V:2
 x8 | x8 | x8 | x8 | x8 | x8 | x8 | x8 | x8 | x8 | x8 | z2 ^D4 z2 | x8 | x8 | x8 | x8 | x8 |] %17
V:3
 G,2 G,2- G,/ z/ A, B,B, | C>C G,6 | G,2 A,2- A,[K:treble]D D2 | D2 D6 | %4
 G,2[K:bass] G,2- G,/ z/ G, F,B, | F,B, B,6 | _B,2 =B,2- B,[K:treble]D D2 | C2 B,6 | %8
 G,2[K:bass] F,2- F,F,F,F, | F,>F, G,6 | G,2 G,2- G,/ z/ E, E,2 | F,2 F,4 C2 | %12
 B,2 G,2- G,/ z/ A, B,B, | C>C G,6 | G,2 G,2- G,^G, A,2 | C2 B,6- | B,2 z2 z4 |] %17
V:4
 z4 z G,G,G, | G,>G, z2 z4 | z2 D,2- D,D, D,2 | D,2 G,6 | z4 z2 B,,B,, | B,,B,, E,6 | %6
 ^C,2 D,2- D,D, D,2 | D,2 G,,6 | z2 D,2- D,D,D,D, | D,>D, G,,6 | z8 | z2 B,,4 A,,2 | %12
 G,,2 z2 z G,G,G, | G,>G, z2 z4 | z2 C,2- C,B,, A,,2 | D,2 [G,,G,]6- | [G,,G,]2 z2 z4 |] %17

